X:1
T:We’ll Work Till Jesus Comes
T:William Miller, 19th Century
T:We’ll Work Till Jesus Comes
T:Public Domain
T:Public Domain
C:William Miller, 19th Century
Z:Public Domain
%%score ( 1 2 ) ( 3 4 )
L:1/8
M:4/4
K:Eb
V:1 treble 
V:2 treble 
V:3 bass 
V:4 bass 
V:1
 (EF) | [EG]2 [EG]2 [EG]2 [EG]2 | [DB]2 [EG]2 (GF) E2 | [DF]3 [CE] [DF]2 [DF]2 | (G2 B4) (EF) | %5
w: 1.~O *|of rest, for thee|I sigh! When * will|mo- ment come When|I * shall *|
w: 2.~To *|sus Christ I fled|for rest; He * bade|cease to roam, And|lean * for *|
w: 3.~I *|at once my Sav-|ior’s side; No * more|steps shall roam. With|Him * I’ll *|
 [EG]2 [EG]2 [EG]2 [EG]2 | [DB]2 [EG]2 (GF) E2 | [DF]3 E [DF]2 [DG]2 | E6 ||"^Refrain" [GB]2 | %10
w: ar- mor by And|dwell in peace * at||||
w: on His breast Till|He con- duct * me|work till Je- sus|We’ll|till|
w: chill- ing tide And|reach my heav’n- * ly||||
 [GB]6 [GB]2 | [Ac]2 [GB]2 (GF) E2 | (z2 B,2 E2) [DF]2 | [EG]2 [GB]2 [GB]2 [GB]2 | [GB]6 [GB]2 | %15
w: |||||
w: Je- sus|comes, We’ll work * till|* * sus|* And we’ll be|ga- thered|
w: |||||
 [Ac]2 [GB]2 (GF) [B,E]2 | [DF]3 E [DF]2 [DG]2 | [B,E]6 |] %18
w: |||
w: home. * * * *|||
w: |||
V:2
 E2 | x8 | x4 E2 x2 | x8 | E6 E2 | x8 | x4 E2 E2 | x3 E x4 | E6 || x2 | x8 | x4 E2 x2 | B6 x2 | %13
w: land||the||lay my||home? *|||||||
w: Je-||me||com- fort||home. We’ll|comes,|work|||Je-|comes,|
w: sought||my||brave death’s||home. *|||||||
 x8 | x8 | x4 E2 x2 | x3 E x4 | x6 |] %18
w: |||||
w: |||||
w: |||||
V:3
 (G,A,) | [E,B,]2 [E,B,]2 [E,B,]2 [E,B,]2 | [B,,B,]2 [E,B,]2 (B,A,) [E,G,]2 | %3
 [B,,B,]3 [B,,B,] [B,,B,]2 [B,,B,]2 | (B,2 G,4) (G,A,) | [E,B,]2 [E,B,]2 [E,B,]2 [E,B,]2 | %6
 [B,,B,]2 [E,B,]2 (B,A,) [E,G,]2 | [B,,A,]3 [B,,G,] [B,,A,]2 [B,,B,]2 | [E,G,]6 || z2 | %10
 z2 [E,B,]2 [E,B,]2 [E,E]2 | [A,,E]2 [E,E]2 (B,A,) G,2 | z2 E,2 E,2 [B,,B,]2 | %13
 [E,B,]2 [E,B,]2 [E,B,]2 z2 | z2 [E,B,]2 [E,B,]2 [E,E]2 | [A,,E]2 [E,E]2 (B,A,) [E,G,]2 | %16
 [B,,A,]3 [B,,G,] [B,,A,]2 [B,,B,]2 | [E,G,]6 |] %18
V:4
 E,2 | x8 | x4 E,2 x2 | x8 | E,6 E,2 | x8 | x4 E,2 x2 | x8 | x6 || x2 | x8 | x4 E,2 x2 | B,6 x2 | %13
 x8 | x8 | x4 E,2 x2 | x8 | x6 |] %18

